<?xml version="1.0" encoding="UTF-8"?>
<map version="1.10" tiledversion="1.12.2" orientation="orthogonal" renderorder="right-down" width="32" height="12" tilewidth="32" tileheight="32" infinite="0" nextlayerid="3" nextobjectid="12">
 <tileset firstgid="1" source="Tiles.tsx"/>
 <layer id="1" name="Level" width="32" height="12">
  <data encoding="csv">
7,7,7,7,7,7,7,7,7,7,7,7,7,7,7,7,7,7,7,7,7,7,7,7,7,7,7,7,7,7,7,7,
7,7,7,3,3,3,3,3,3,3,3,3,3,3,3,3,3,3,3,3,3,3,3,3,3,3,3,3,3,3,3,3,
7,5,0,0,0,0,0,0,0,0,0,0,0,0,0,0,0,0,0,0,0,0,0,0,0,0,0,0,0,0,0,0,
5,0,0,0,0,8,14,0,0,0,0,0,0,0,0,0,0,0,0,0,0,0,0,0,0,0,0,0,0,0,0,0,
5,0,0,0,0,0,9,12,0,0,0,0,0,0,0,0,0,0,0,0,0,0,0,0,0,0,0,0,0,0,0,0,
5,0,0,0,0,0,0,0,0,0,0,0,0,0,0,0,0,0,0,0,0,8,14,0,0,0,0,0,0,0,0,0,
5,0,0,0,0,0,0,0,0,0,0,0,0,0,0,0,0,10,12,0,0,0,9,14,0,0,0,0,0,0,0,0,
5,0,0,11,0,0,0,0,0,0,0,0,0,0,0,10,6,5,0,0,0,0,0,9,12,0,0,0,0,0,0,0,
7,14,0,0,0,0,0,0,0,0,0,0,0,0,8,3,5,0,0,0,0,0,0,0,0,0,0,0,0,0,0,0,
7,7,14,0,0,0,0,0,0,0,0,0,0,0,0,0,0,0,0,0,0,0,0,0,0,0,0,0,0,0,10,6,
7,7,7,6,6,6,6,6,6,6,6,6,6,6,6,6,6,6,6,6,6,6,6,6,6,6,6,6,6,6,7,7,
7,7,7,7,7,7,7,7,7,7,7,7,7,7,7,7,7,7,7,7,7,7,7,7,7,7,7,7,7,7,7,7
</data>
 </layer>
 <objectgroup id="2" name="objectgroup">
  <object id="1" name="Coin" x="312.667" y="114.667"/>
  <object id="2" name="Juice" x="238.667" y="246.667"/>
  <object id="3" name="Win" x="978" y="176.667"/>
  <object id="4" name="SmallB" x="945.333" y="142"/>
  <object id="5" name="SmallB" x="946" y="207.333"/>
  <object id="6" name="SmallB" x="1010" y="144"/>
  <object id="8" name="Coin" x="657.333" y="270"/>
  <object id="9" name="Juice" x="626.667" y="113.333"/>
  <object id="11" name="Player" x="77.193" y="167.018"/>
 </objectgroup>
</map>
